!!!COM: Gesualdo, Carlo
!!!CDT:
!!!PTL: Il secondo libro de madrigali a cinque voci
!!!PPP: Ferrara
!!!PPR: Baldini
!!!PDT: 1594
!!!PUB-format:
!!!RISM: G 1725
!!!rime: 495
!!!OTL: Se così dolce è il duolo
!!!AGN: Madrigal
!!!SCT: Trm0495a
!!!SCA: Trm0495a
!!!original-voices: 5
!!!extant-voices: 5
!!!complete: Y
!!!final: (B-)G
**kern	**text	**kern	**text	**kern	**text	**kern	**text	**kern	**text
*part5	*part5	*part4	*part4	*part3	*part3	*part2	*part2	*part1	*part1
*staff5	*staff5	*staff4	*staff4	*staff3	*staff3	*staff2	*staff2	*staff1	*staff1
*I"Basso	*	*I"Quinto	*	*I"Tenore	*	*I"Alto	*	*I"Canto	*
*I'B	*	*I'V	*	*I'T	*	*I'A	*	*I'C	*
*oclefF4	*	*oclefC4	*	*oclefC4	*	*oclefC2	*	*oclefC1	*
*clefF4	*	*clefGv2	*	*clefGv2	*	*clefG2	*	*clefG2	*
*k[b-]	*	*k[b-]	*	*k[b-]	*	*k[b-]	*	*k[b-]	*
*omet(C)	*	*omet(C)	*	*omet(C)	*	*omet(C)	*	*omet(C)	*
*M4/2	*	*M4/2	*	*M4/2	*	*M4/2	*	*M4/2	*
=1	=1	=1	=1	=1	=1	=1	=1	=1	=1
!!LO:TX:a:t=Prima parte.
2r	.	2.e-X	Se	2r	.	0r	.	0r	.
2.G	Se	.	.	2.B-y	Se	.	.	.	.
.	.	4d	co-	.	.	.	.	.	.
.	.	4B-y	-sì	.	.	.	.	.	.
4F	co-	2d	dol-	4A	co-	.	.	.	.
2D	-sì	.	.	4F	-sì	.	.	.	.
.	.	4c	-c’il	[4A	dol-	.	.	.	.
=2	=2	=2	=2	=2	=2	=2	=2	=2	=2
4D	dol-	2B-y	duo-	4A]	.	0r	.	0r	.
4GG	-c’il	.	.	4G	-c’il	.	.	.	.
2D	duo-	1A	-lo,	2F#X	duo-	.	.	.	.
2D	-lo,	.	.	2F#i	-lo,	.	.	.	.
2r	.	2r	.	2r	.	.	.	.	.
=3	=3	=3	=3	=3	=3	=3	=3	=3	=3
2BB-y	Deh!,	2B-y	Deh!,	2d	Deh!,	2f	Deh!,	2r	.
2r	.	4r	.	4r	.	4r	.	4r	.
.	.	4F	Deh!	4f	Deh!	4a	Deh!	4cc	Deh!
1r	.	4.B-y	qual	4.f	qual	4.b-y	qual	4.dd	qual
.	.	8c	dol-	8e	dol-	8g	dol-	8cc	dol-
.	.	4G	-cez-	4d	-cez-	4g	-cez-	4b-y	-cez-
.	.	4E	-z’a-	4c	-z’a-	4c	-z’a-	4g	-z’a-
=4	=4	=4	=4	=4	=4	=4	=4	=4	=4
0r	.	2G	-spet-	2BnX	-spet-	2d	-spet-	2g	-spet-
.	.	2G	-to,	2Bni	-to,	2d	-to,	4g	-to,
.	.	.	.	.	.	.	.	2dd	Se
.	.	2.d	Se	2r	.	4b-y	Se	.	.
.	.	.	.	.	.	4g	co-	4b-y	co-
.	.	.	.	4f	Se	4f	-sì	4a	-sì
.	.	4c	co-	4e	co-	[4a	dol-	[4cc	dol-
=5	=5	=5	=5	=5	=5	=5	=5	=5	=5
0r	.	2A	-sì	4c	-sì	4a]	.	4cc]	.
.	.	.	.	2e	dol-	4g	-c’il	4b-y	-c’il
.	.	4A	dol-	.	.	2f	duo-	1a	duo-
.	.	4D	-c’il	4d	-c’il	.	.	.	.
.	.	2A	duo-	2c#X	duo-	1e	-lo,	.	.
.	.	2A	-lo,	2c#i	-lo,	.	.	2a	-lo,
=6	=6	=6	=6	=6	=6	=6	=6	=6	=6
2r	.	2r	.	2r	.	2r	.	2r	.
2F	Deh!,	2f	Deh!,	2c	Deh!,	2a	Deh!,	2cc	Deh!,
4r	.	4r	.	4r	.	4r	.	4r	.
4BB-y	Deh!	4f	Deh!	4F	Deh!	4b-y	Deh!	4dd	Deh!
4.E-X	qual	4.B-y	qual	4.G	qual	4.g	qual	4.ee-X	qual
8F	dol-	8A	dol-	8c	dol-	8f	dol-	8cc	dol-
=7	=7	=7	=7	=7	=7	=7	=7	=7	=7
4C	-cez-	4G	-cez-	4.c	-cez-	8e	-cez-	4cc	-cez-
.	.	.	.	.	.	8e	-z’a-	.	.
4AA	-z’a-	4c	-z’a-	.	.	2f	-spet-	4f	-z’a-
.	.	.	.	8A	-z’a-	.	.	.	.
2C	-spet-	2c	-spet-	2G	-spet-	.	.	2g	-spet-
.	.	.	.	.	.	4e	.	.	.
2FF	-to,	2c	-to	2F	-to	4f	-to	2a	-to
.	.	.	.	.	.	4c	D’im-	.	.
2r	.	2r	.	2A	D’im-	8c	-ma-	2cc	D’im-
.	.	.	.	.	.	8c	-gi-	.	.
.	.	.	.	.	.	8d	-na-	.	.
.	.	.	.	.	.	8e	-to	.	.
=8	=8	=8	=8	=8	=8	=8	=8	=8	=8
2r	.	2c	D’im-	8A	-ma-	2f	mio	8cc	-ma-
.	.	.	.	8A	-gi-	.	.	8cc	-gi-
.	.	.	.	8G	-na-	.	.	8b-y	-na-
.	.	.	.	8F	-to	.	.	8a	-to
2C	D’im-	8c	-ma-	2E	mio	4r	.	4g	mio,
.	.	8c	-gi-	.	.	.	.	.	.
.	.	8B-y	-na-	.	.	2e	nuo-	8r	.
.	.	8A	-to	.	.	.	.	8e	D’im-
8C	-ma-	4G	mio	1r	.	.	.	8e	-ma-
8C	-gi-	.	.	.	.	.	.	8e	-gi-
8BB-y	-na-	4.d	nuo-	.	.	8d	-vo	8g	-na-
8AA	-to	.	.	.	.	8c	di-	8a	-to
4GG	mio	.	.	.	.	4d	-let-	4b-y	mio
.	.	8e	-vo	.	.	.	.	.	.
[4D	nuo-	4f	di-	.	.	[4A	-to,	[4f	nuo-
=9	=9	=9	=9	=9	=9	=9	=9	=9	=9
8D]	.	4d	-let-	4r	.	4A]	.	8f]	.
8E	-vo	.	.	.	.	.	.	8g	-vo
4F	di-	4c	-to,	4.c	nuo-	4.A	nuo-	2a	di-
2C	-let-	2r	.	.	.	.	.	.	.
.	.	.	.	8d	-vo	8B-y	-vo	.	.
.	.	.	.	4e-X	di-	4c	di-	2g	-let-
2D	-to,	2r	.	2d	-let-	2A	-let-	.	.
.	.	.	.	.	.	.	.	4f#X	.
4r	.	4r	.	4d	-to,	2G	-to,	4g	-to,
[4G	nuo-	[4B-y	nuo-	[4B-y	nuo-	.	.	[4dd	nuo-
=10	=10	=10	=10	=10	=10	=10	=10	=10	=10
4G]	.	4B-]	.	4B-]	.	2r	.	4dd]	.
4A	-vo	4c	-vo	4A	-vo	.	.	4cc	-vo
2B-y	di-	2d	di-	2G	di-	2.d	nuo-	2b-y	di-
[1F	-let-	2.f	-let-	2d	-let-	.	.	2a	-let-
.	.	.	.	.	.	4e	-vo	.	.
.	.	.	.	4c	.	2f	di-	[2b-y	.
.	.	8eL	.	4B-y	.	.	.	.	.
.	.	8dJ	.	.	.	.	.	.	.
=11	=11	=11	=11	=11	=11	=11	=11	=11	=11
1F]	.	1f	.	4c	.	1c	-let-	4b-]	.
.	.	.	.	4F	.	.	.	8aL	.
.	.	.	.	.	.	.	.	8gJ	.
.	.	.	.	2f	.	.	.	2a	.
[1BB-y	-to.	[1d	-to.	[1f	-to.	[1B-y	-to.	[1b-y	-to.
=12	=12	=12	=12	=12	=12	=12	=12	=12	=12
0BB-]	.	0d]	.	0f]	.	0B-]	.	0b-]	.
=||13	=||13	=||13	=||13	=||13	=||13	=||13	=||13	=||13	=||13
!!LO:TX:a:t=Seconda parte.
0r	.	1r	.	1r	.	1g	Ma	0r	.
.	.	2r	.	1G	Ma	2.b-y	s’av-	.	.
.	.	2B-y	Ma	.	.	.	.	.	.
.	.	.	.	.	.	4a	-ver-	.	.
=14	=14	=14	=14	=14	=14	=14	=14	=14	=14
0r	.	2.d	s’av-	2.B-y	s’av-	2.g	-rà	2b-y	Ma
.	.	.	.	.	.	.	.	2.dd	s’av-
.	.	4c	-ver-	4A	-ver-	4f	ch’io	.	.
.	.	2.B-y	-rà	2.G	-rà	2e-X	mo-	.	.
.	.	.	.	.	.	.	.	4cc	-ver-
.	.	.	.	.	.	[2d	.	[2b-y	-rà
.	.	4A	ch’io	4F	ch’io	.	.	.	.
=15	=15	=15	=15	=15	=15	=15	=15	=15	=15
0r	.	1G	mo-	1E-X	mo-	4d]	.	4b-]	.
.	.	.	.	.	.	8cL	.	4a	ch’io
.	.	.	.	.	.	8B-yJ	.	.	.
.	.	.	.	.	.	2c	.	2g	mo-
.	.	2A	-ia	2D	-ia	2d	-ia	2f#X	-ia
.	.	2r	.	2r	.	2r	.	4a	Di
.	.	.	.	.	.	.	.	4b-y	pia-
=16	=16	=16	=16	=16	=16	=16	=16	=16	=16
1r	.	4d	Di	1r	.	4f	Di	4a	-ce-
.	.	4e-X	pia-	.	.	4g	pia-	8cc	-r’e
.	.	.	.	.	.	.	.	8g	di
.	.	4d	-ce-	.	.	4f	-ce-	4b-y	gio-
.	.	8f	-r’e	.	.	8a	-r’e	4a	-ia,
.	.	8c	di	.	.	8e	di	.	.
4F	Di	4d	gio-	4A	Di	4f	gio-	1r	.
4G	pia-	4B-y	-ia,	4B-y	pia-	4d	-ia,	.	.
2F	-cer'	4r	.	2A	-ce-	2r	.	.	.
.	.	8c	Di	.	.	.	.	.	.
.	.	8d	pia-	.	.	.	.	.	.
=17	=17	=17	=17	=17	=17	=17	=17	=17	=17
4r	.	4c	-ce-	8A	-r’e	0r	.	1r	.
.	.	.	.	8F	di	.	.	.	.
8G	e	8B-y	-r’e	2B-y	gio-	.	.	.	.
8D	di	8d	di	.	.	.	.	.	.
2F	gio-	2c	gio-	.	.	.	.	.	.
.	.	.	.	4A	.	.	.	.	.
1BB-y	-ia,	2d	-ia,	1B-y	-ia,	.	.	2r	.
.	.	2d	Ma	.	.	.	.	2f	Ma
=18	=18	=18	=18	=18	=18	=18	=18	=18	=18
2r	.	2.f	s’av-	2r	.	1r	.	2.a	s’av-
2D	Ma	.	.	2F	Ma	.	.	.	.
.	.	4e	-ver-	.	.	.	.	4g	-ver-
2.F	s’av-	2.d	-rà	2.A	s’av-	2f	Ma	2f	-rà
.	.	.	.	.	.	[2a	s’av-	2d	ch’io
4E	-ver-	4c	ch’io	4G	-ver-	.	.	.	.
=19	=19	=19	=19	=19	=19	=19	=19	=19	=19
2.D	-rà	2B-y	mo-	2.F	-rà	4a]	.	4f	mo-
.	.	.	.	.	.	4g	-ver-	4g	.
.	.	4A	-ia,	.	.	2.f	-rà	1a	.
4C	ch’io	4A	ch'io	4E	ch’io	.	.	.	.
1BB-y	mo-	2.F	mo-	1D	mo-	.	.	.	.
.	.	.	.	.	.	4e	ch’io	.	.
.	.	.	.	.	.	[2d	mo-	2g	.
.	.	8EL	.	.	.	.	.	.	.
.	.	8DJ	.	.	.	.	.	.	.
=20	=20	=20	=20	=20	=20	=20	=20	=20	=20
1AA	-ia	2F	.	1A	-ia	2d]	.	1a	-ia
.	.	2E	-ia	.	.	2c#X	.	.	.
1r	.	2r	.	2r	.	2d	-ia	4f	Di
.	.	.	.	.	.	.	.	4d	pia-
.	.	4B-y	Di	4B-y	Di	4d	Di	4f	-ce-
.	.	4G	pia-	4d	pia-	4B-y	pia-	8g	-r’e
.	.	.	.	.	.	.	.	8d	di
=21	=21	=21	=21	=21	=21	=21	=21	=21	=21
0r	.	4A	-ce-	4c	-ce-	4c	-ce-	4f	gio-
.	.	8c	-r’e	8A	-r’e	8e	-r’e	8eL	.
.	.	8G	di	8d	di	8g	di	8dJ	.
.	.	2A	gio-	2c#X	gio-	2e	gio-	4a	.
.	.	.	.	.	.	.	.	4e	-ia
.	.	2D	-ia	2d	-ia	2d	-ia	2r	.
.	.	4d	Non	4B-y	Non	4f	Non	4b-y	Non
.	.	4c	ri-	4A	ri-	4f	ri-	4cc	ri-
=22	=22	=22	=22	=22	=22	=22	=22	=22	=22
0r	.	2B-y	-tar-	2B-y	-tar-	2f	-tar-	2dd	-tar-
.	.	4e-X	-di	4E-X	-di	4g	-di	4cc	-di
.	.	4d	la	4G	la	4g	la	4bnX	la
.	.	2e-i	mor-	2C	mor-	2g	mor-	2cc	mor-
.	.	2d	-te,	2D	-te,	2f#X	-te,	2a	-te,
=23	=23	=23	=23	=23	=23	=23	=23	=23	=23
4GG	Non	4D	Non	4G	Non	4g	Non	4b-y	Non
4FF#X	ri-	4D	ri-	4A	ri-	4d	ri-	4a	ri-
2GG	-tar-	4.D	-tar-	2B-y	-tar-	4.d	-tar-	2g	-tar-
.	.	8D	-di	.	.	8d	-di	.	.
4D	-di	4D	la	4A	-di	4d	la	4f	-di
4FnXi	la	2A	mor-	4A	la	2c	mor-	4f	la
2BB-y	mor-	.	.	2D	mor-	.	.	2d	mor-
.	.	4G	.	.	.	4B-y	.	.	.
=24	=24	=24	=24	=24	=24	=24	=24	=24	=24
2FF	-te	2A	-te	2F	-te	4c	-te	2c	-te
.	.	.	.	.	.	4c	Sì	.	.
2r	.	4r	.	4r	.	4.f	lie-	2r	.
.	.	4F	Sì	4A	Sì	.	.	.	.
.	.	.	.	.	.	8e	-to	.	.
1r	.	4.B-y	lie-	4.d	lie-	8d	fi-	1r	.
.	.	.	.	.	.	8G	-n’e	.	.
.	.	.	.	.	.	8B-y	sì	.	.
.	.	8A	-to	8c	-to	8c	fe-	.	.
.	.	8G	fi-	8B-y	fi-	4d	-li-	.	.
.	.	8D	-n’e	8A	-n’e	.	.	.	.
.	.	8A	sì	8F	sì	4f	-ce	.	.
.	.	8BnX	fe-	8G	fe-	.	.	.	.
=25	=25	=25	=25	=25	=25	=25	=25	=25	=25
1r	.	4c#X	-li-	4A	-li-	1e	sor-	1r	.
.	.	4d	-ce	4G	-ce	.	.	.	.
.	.	2c#X	sor-	2A	sor-	.	.	.	.
2r	.	1d	-te,	4D	-te,	2d	-te,	4r	.
.	.	.	.	4F	Sì	.	.	4a	Sì
2BB-y	Sì	.	.	4B-y	lie-	2d	Sì	4dd	lie-
.	.	.	.	4A	-to	.	.	4cc	-to
=26	=26	=26	=26	=26	=26	=26	=26	=26	=26
4E-X	lie-	4r	.	8G	fi-	4g	lie-	8b-y	fi-
.	.	.	.	8C	-n’e	.	.	8g	-n’e
4D	-to	4F	Sì	8F	sì	4f	-to	8a	sì
.	.	.	.	8G	fe-	.	.	8b-y	fe-
8C	fi-	4c	lie-	4A	-li-	8e	fi-	4cc	-li-
8FF	-n’e	.	.	.	.	8c	-n’e	.	.
8BB-y	sì	4B-y	-to	4D	-ce	8d	sì	2f	-ce
8C	fe-	.	.	.	.	8e	fe-	.	.
2.D	-li-	8A	fi-	2A	sor-	2.f	-li-	.	.
.	.	8D	-n’e	.	.	.	.	.	.
.	.	8F	sì	.	.	.	.	4.a	sor-
.	.	8G	fe-	.	.	.	.	.	.
.	.	4A	-li-	2D	-te,	.	.	.	.
.	.	.	.	.	.	.	.	8d	.
4GG	-ce	4B-y	-ce	.	.	4d	-ce	[4g	.
=27	=27	=27	=27	=27	=27	=27	=27	=27	=27
2D	sor-	2A	sor-	1r	.	2d	sor-	4g]	.
.	.	.	.	.	.	.	.	4f#X	.
2GG	-te,	2d	-te,	.	.	2BnX	-te,	2g	-te,
1r	.	2r	.	2r	.	2r	.	2r	.
.	.	4B-y	Non	4d	Non	4f	Non	4b-y	Non
.	.	4A	ri-	4c	ri-	4f	ri-	4cc	ri-
=28	=28	=28	=28	=28	=28	=28	=28	=28	=28
0r	.	2B-y	-tar-	2B-y	-tar-	2f	-tar-	2dd	-tar-
.	.	4E-X	-di	4e-X	-di	4g	-di	4cc	-di
.	.	4G	la	4d	la	4g	la	4bnX	la
.	.	2C	mor-	2e-X	mor-	2g	mor-	2cc	mor-
.	.	2D	-te,	2d	-te,	2f#X	-te,	2a	-te,
=29	=29	=29	=29	=29	=29	=29	=29	=29	=29
2r	.	2r	.	2r	.	2r	.	2r	.
4GG	Non	4G	Non	4D	Non	4g	Non	4b-y	Non
4FF#X	ri-	4A	ri-	4D	ri-	4d	ri-	4a	ri-
2GG	-tar-	2B-y	-tar-	4.D	-tar-	4.d	-tar-	2g	-tar-
.	.	.	.	8D	-di	8d	-di	.	.
4D	-di	4A	-di	4D	la	4d	la	4f	-di
4FnXi	la	4A	la	[4A	mor-	[4c	mor-	4f	la
=30	=30	=30	=30	=30	=30	=30	=30	=30	=30
2BB-y	mor-	2D	mor-	4A]	.	4c]	.	2d	mor-
.	.	.	.	4G	.	4B-y	.	.	.
2FFnXi	-te,	2F	-te	2A	-te	4c	-te	2c	-te
.	.	.	.	.	.	4c	Sì	.	.
1r	.	4r	.	4r	.	4.f	lie-	1r	.
.	.	4A	Sì	4F	Sì	.	.	.	.
.	.	.	.	.	.	8e	-to	.	.
.	.	4.d	lie-	4.B-y	lie-	8d	fi-	.	.
.	.	.	.	.	.	8G	-n’e	.	.
.	.	.	.	.	.	8B-y	sì	.	.
.	.	8c	-to	8A	-to	8c	fe-	.	.
=31	=31	=31	=31	=31	=31	=31	=31	=31	=31
0r	.	8B-y	fi-	8G	fi-	4d	-li-	1r	.
.	.	8A	-n’e	8D	-n’e	.	.	.	.
.	.	8F	sì	8A	sì	4f	-ce	.	.
.	.	8G	fe-	8BnX	fe-	.	.	.	.
.	.	4A	-li-	4c#X	-li-	1e	sor-	.	.
.	.	4G	-ce	4d	-ce	.	.	.	.
.	.	2A	sor-	2c#X	sor-	.	.	2r	.
.	.	4D	-te,	[2d	-te,	2d	-te,	4r	.
.	.	4F	Sì	.	.	.	.	4a	Sì
=32	=32	=32	=32	=32	=32	=32	=32	=32	=32
4r	.	4.B-y	lie-	2d]	.	4r	.	4.dd	lie-
4BB-y	Sì	.	.	.	.	4d	Sì	.	.
.	.	8A	-to	.	.	.	.	8cc	-to
4E-X	lie-	8G	fi-	4r	.	4g	lie-	8b-y	fi-
.	.	8C	-n’e	.	.	.	.	8g	-n’e
4D	-to	8F	sì	4F	Sì	4f	-to	8a	sì
.	.	8G	fe-	.	.	.	.	8b-y	fe-
8C	fi-	4A	-li-	4c	lie-	8e	fi-	4cc	-li-
8FF	-n’e	.	.	.	.	8c	-n’e	.	.
8BB-y	sì	4D	-ce	4B-y	-to	8d	sì	2f	-ce
8C	fe-	.	.	.	.	8e	fe-	.	.
[2D	-li-	2A	sor-	8A	fi-	[2f	-li-	.	.
.	.	.	.	8D	-n’e	.	.	.	.
.	.	.	.	8F	sì	.	.	[4a	sor-
.	.	.	.	8G	fe-	.	.	.	.
=33	=33	=33	=33	=33	=33	=33	=33	=33	=33
4D]	.	0Dl	-te.	4A	-li-	4f]	.	8a]L	.
.	.	.	.	.	.	.	.	8dJ	.
4GG	-ce	.	.	4B-y	-ce	4d	-ce	2g	.
2D	sor-	.	.	2A	sor-	2d	sor-	.	.
.	.	.	.	.	.	.	.	4f#X	.
1GGl	-te.	.	.	1Gl	-te.	1BnXl	-te.	1gl	-te.
==	==	==	==	==	==	==	==	==	==
*-	*-	*-	*-	*-	*-	*-	*-	*-	*-
!!!system-decoration: [*]
!!!YEM:	Carlo Gesualdo, “Se così dolce è ‘l duolo,” 1594 (Trm0495a; August 2018) Tasso in Music Project (http://www.tassomusic.org)s Copyright 2016 Emiliano Ricciardi
!!!RDF**kern: i = editorial accidental
!!!RDF**kern: l = terminal long
!!!ENC: Emiliano Ricciardi
!!!END: 2018
!!!EED: Deutsch, Catherine
!!!EEV: 2018/09/18
!!!YEC: Copyright 2018 Emiliano Ricciardi, All Rights Reserved
!!!ONB: Translated from MusicXML on 2018/09/18 and edited by Craig Stuart Sapp
!!@@BEGIN:	VERSEDATA
!!@SOLERTI:	495
!!@CATALOGNUM:	Trm0495
!!@LAST_MODIFIED: 2020/07/12
!!@TITLE:		Se così dolce è il duolo
!!@GENRE:		madrigale
!!@MANUSRC:	Br, P<sub>3</sub>
!!@PRINTSRC:	none
!!@@BEGIN:	VERSES
!!@ABOUTIT:
!!@ABOUTEN:
!!@EDITOR:	Solerti, Angelo
!!@EDITION_TITLE: Le Rime di Torquato Tasso
!!@EDITION_LOC:	Bologna
!!@EDITION_PUB:	Romagnoli-Dall’Acqua
!!@EDITION_DATE:  1898-1902
!!@EDITION_VOL:	2
!!@EDITION_PAGE:  510
!!@TRANSLATOR:	Emiliano Ricciardi and Amyrose McCue Gill
!!@VERSE:
!!	Se così dolce è il duolo ,
!!	Deh! qual dolcezza aspetto
!!	D'imaginato mio novo diletto.
!!	Ma s'avverrà ch'io muoia
!!	Piacere e di gioia,
!!	Non ritardi la morte
!!	Sì lieto fine e sì felice sorte.
!!@TVERSE:
!!	If so sweet is the pain,
!!	Oh! How [much] sweetness I expect
!!	From my imagined new delight.
!!	But if it should happen that I die
!!	[Of] pleasure and of joy,
!!	May death not delay
!!	Such a blissful end and such a happy fate.
!!@@END:		VERSES
!!@OTHER_CRIT_ED:   None
!!@ATTRIBUTION_ABOUT:	Secure
!!@DATING:	Early 1590s
!!@DEDICATEE:	Gesualdo, Carlo
!!@DEDICATEE_INFO:	Carlo Gesualdo da Venosa
!!@COMMENTARY:
!!@@END:		VERSEDATA
!!@@BEGIN:	SETTING
!!@CATALOGNUM:	Trm0495a
!!@RIMETITLE:	Se così dolce è il duolo
!!@SOLERTI:	495
!!@COMPOSER:	Gesualdo, Carlo
!!@PRINCEPSTITLE:	Il secondo libro de madrigali a cinque voci
!!@PRINCEPSLOC:	Ferrara
!!@NORMLOC:	Ferrara
!!@NORMPUB:	Baldini
!!@NORMPUBSHORT:	Baldini
!!@PRINCEPSPUB:	Baldini
!!@PRINCEPSYEAR:	1594
!!@PRINCEPSRISM:	G 1725
!!@REPRINTS:	G1722, G1723, G1724
!!@OVOICES:	5
!!@EXTANTVOICES:	5
!!@PARTBOOKS:	
!!@EXTPARTBOOKS:	
!!@OCLEFS:	C1,C2,C4,C4,F4
!!@OMENSURATION:	C
!!@OKEYSIG:	b-
!!@FINAL:	(B-)G
!!@TIMPEDITOR:	Deutsch, Catherine
!!@NOTE:		
!!@@END:		SETTING
